svg/u1f418.svg

<svg viewBox="0 0 128 128" xmlns="http://www.w3.org/2000/svg">
  <path d="M38.09,74.55c0.14,1.27-0.99,7.6-1.55,9.71c-0.56,2.11-1.41,6.48-0.56,8.02 c0.84,1.55,6.9,7.67,9.15,9.78c2.25,2.11,7.88,6.41,10.14,6.69c2.25,0.28,6.05-5.21,5.49-8.31c-0.56-3.1-6.34-9.85-6.34-9.85 l2.82-5.07l9.71,0.99c0,0-0.28,8.73-0.28,12.53s-1.86,10.8,0.28,12.25c2.39,1.62,9.71,1.2,11.4-0.63c1.69-1.83,0.14-8.94,1.13-12.46 c0.99-3.52,3.66-9.71,3.66-9.71l8.02-36.74l-4.5-13.94c0,0-0.14-1.83-0.42-3.38c-0.28-1.55-2.39-5.21-2.82-6.05 s-34.21-5.35-34.21-5.35l-11.97-2.25l-0.05-3.94l-19.52,2.25l-6.85,11.54L8.2,51.75c0,0-2.72,7.6-2.06,9.29s2.63,6.29,5.54,7.23 c2.91,0.94,8.82,2.06,8.82,2.06l6.85,3.66c0,0,4.21-2.07,7.13-1.5C38.32,73.24,38.09,74.55,38.09,74.55z" fill="#878787"/>
  <path d="M16.74,10.64c-2.96,0.84-8.92,7.13-9.85,11.17S8.25,34.6,7.84,37.24 c-0.52,3.33-2.46,11.78-2.64,16.38s3.47,7.88,3.47,7.88l3.61-0.75c0,0-0.56-15.81,0.09-18.07c0.66-2.25,2.21-3.52,2.21-3.52 s-0.7-8.07,2.67-12.58s8.92-7.18,12.67-7.56c3.75-0.38,7.27,0.47,7.27,0.47s0.8-6.15-2.91-8.59C30.07,8.14,18.85,10.04,16.74,10.64z " fill="#BEBEBE"/>
  <path d="M54.56,65.35c0,0,2.53,3.47,6.19,3.19c3.66-0.28,8.82-4.04,11.45-6.38s9.29-8.73,11.07-11.36 c1.78-2.63,2.82-5.09,3.19-8.07c0.4-3.17,0.19-4.93,0.19-4.93s3.52,0.92,7.04,4.5c2.61,2.66,5.54,5.61,7.32,13.3 s2.25,12.08,2.63,12.83c0.38,0.75,2.23,3.07,3.5,4.48c1.7,1.88,3.38,2.82,3.82,2.75c1.22-0.28,2.58-0.28,4.34,0.14 c1.76,0.42,4.13,3.04,5.42,4.43c1.69,1.83,3.45,3.24,3.45,3.59c0,0.72-5.41,1.21-10.77-0.84c-3.31-1.27-4.65-4.58-4.65-4.58 s-2.75-1.9-4.43-3.38c-0.9-0.79-2.25-2.11-2.25-2.11s-0.67,2.83-1.41,5.28c-0.84,2.82-1.69,6.19-1.41,9.64s1.83,7.6,3.38,10.84 s3.1,7.39,1.27,10.35c-1.83,2.96-8.09,7.75-11.4,5.35c-2.04-1.48-3.31-7.18-4.08-10.35c-0.77-3.17-3.52-9.92-3.87-10.7 c-0.35-0.77-2.25-3.59-2.25-3.59s-5.77,0.35-11.47,0.28s-9.01-0.63-9.01-0.63s-4.29,7.95-5.91,12.53c-1.62,4.58-2.67,11.4-3.73,13.3 c-1.06,1.9-2.89,5.19-9.85,4.5c-5.7-0.56-6.9-4.15-6.9-4.15s-0.77-3.52,1.34-10.28s4.58-13.37,6.19-18.65 c0.56-1.84,1.2-4.93,1.2-4.93s-4.08-4.58-4.43-5.07c-0.35-0.49-1.62-1.69-1.62-1.69l-0.18-0.99c0,0,3.58,0.17,7.78-1.13 C52.1,70.89,54.56,65.35,54.56,65.35z" fill="#BEBEBE"/>
  <path d="M47.8,20.02c0,0,3.38-6.01,6.29-6.38s12.37-1.4,17.27,0.38c2.46,0.89,8.47,6.87,10.3,9.92 c1.77,2.95,4.06,6.87,3.4,11.85C84.41,40.76,83,40.76,83,41.98c0,1.22,0.47,4.13-1.41,6.29c-1.88,2.16-3.94,0.19-5.16,1.69 S75.58,55.22,73.9,57c-1.69,1.78-5.26,1.6-6.66,2.72c-1.41,1.13-1.78,4.97-5.35,5.73c-3.57,0.75-4.97-2.82-6.01-9.29 c-1.03-6.48-1.55-17.12-3.19-17.08c-1.68,0.04-1.07,3.25-0.87,7.57c0.21,4.55,1.81,14.02-1.29,18.06s-6.38,5.73-9.76,5.91 c-3.38,0.19-6.59-2.18-8.09-1.9c-1.5,0.28-0.63,2.1-2.98,4.25c-2.44,2.23-4.32,4.41-5.07,6.29c-0.75,1.88-2.82,5.73-2.72,9.76 s1.36,5.7,2.96,5.33c1.6-0.38,0.67-4.79,2.11-5.7c1.34-0.84,4.97,1.13,4.88,6.57c-0.09,5.44-5.37,10.04-12.62,7.65 c-7.67-2.53-8.66-13.87-6.97-19.78s2.44-10.65,2.53-13.94c0.09-3.28-1.34-5.19-1.06-7.53c0.28-2.35,0-2.91,0.09-7.13 c0.09-4.22-0.38-10.23,0.47-11.73c0.84-1.5,2.25-3.1,2.25-3.1s-0.91-6.69,1.03-10.32c3-5.63,8.82-8.35,15.49-9.01 C39.73,19.65,47.8,20.02,47.8,20.02z" fill="#BEBEBE"/>
  <ellipse cx="40.38" cy="50.16" fill="#010101" rx="3.34" ry="3.41"/>
  <path d="M34.38,66.72c0.42-1.92,3.04-4.65,5.02-3.99c1.27,0.42,2.11,3.47,1.69,5.44s-2.21,3.43-4.6,2.67 C34.1,70.09,34.12,67.93,34.38,66.72z" fill="#FAE9AE"/>
  <path d="M3.79,56.58c-0.77,1.71,1.55,4.08,3.1,5.35c1.55,1.27,4.93,3.66,5.91,4.22s1.97,0.8,1.97,0.8 s-0.89-3.47-0.89-4.5c0-1.03,0.05-3.14,0.05-3.14s-2.96-1.6-4.65-2.16C7.59,56.58,4.44,55.12,3.79,56.58z" fill="#FAE9AE"/>
</svg>

<svg viewBox="0 0 128 128" xmlns="http://www.w3.org/2000/svg">
  <defs/>
  <path d="M38.09,74.55 C38.23,75.82 37.1,82.15 36.54,84.26 C35.98,86.37 35.13,90.74 35.98,92.28 C36.82,93.83 42.88,99.95 45.13,102.06 C47.38,104.17 53.01,108.47 55.27,108.75 C57.52,109.03 61.32,103.54 60.76,100.44 C60.2,97.34 54.42,90.59 54.42,90.59 L57.24,85.52 L66.95,86.51 C66.95,86.51 66.67,95.24 66.67,99.04 C66.67,102.84 64.81,109.84 66.95,111.29 C69.34,112.91 76.66,112.49 78.35,110.66 C80.04,108.83 78.49,101.72 79.48,98.2 C80.47,94.68 83.14,88.49 83.14,88.49 L91.16,51.75 L86.66,37.81 C86.66,37.81 86.52,35.98 86.24,34.43 C85.96,32.88 83.85,29.22 83.42,28.38 C82.99,27.54 49.21,23.03 49.21,23.03 L37.24,20.78 L37.19,16.84 L17.67,19.09 L10.82,30.63 L8.2,51.75 C8.2,51.75 5.48,59.35 6.14,61.04 C6.8,62.73 8.77,67.33 11.68,68.27 C14.59,69.21 20.5,70.33 20.5,70.33 L27.35,73.99 C27.35,73.99 31.56,71.92 34.48,72.49 C38.32,73.24 38.09,74.55 38.09,74.55 Z" fill="#878787"/>
  <path d="M16.74,10.64 C13.78,11.48 7.82,17.77 6.89,21.81 C5.96,25.85 8.25,34.6 7.84,37.24 C7.32,40.57 5.38,49.02 5.2,53.62 C5.02,58.22 8.67,61.5 8.67,61.5 L12.28,60.75 C12.28,60.75 11.72,44.94 12.37,42.68 C13.03,40.43 14.58,39.16 14.58,39.16 C14.58,39.16 13.88,31.09 17.25,26.58 C20.62,22.07 26.17,19.4 29.92,19.02 C33.67,18.64 37.19,19.49 37.19,19.49 C37.19,19.49 37.99,13.34 34.28,10.9 C30.07,8.14 18.85,10.04 16.74,10.64 Z" fill="#BEBEBE"/>
  <path d="M54.56,65.35 C54.56,65.35 57.09,68.82 60.75,68.54 C64.41,68.26 69.57,64.5 72.2,62.16 C74.83,59.82 81.49,53.43 83.27,50.8 C85.05,48.17 86.09,45.71 86.46,42.73 C86.86,39.56 86.65,37.8 86.65,37.8 C86.65,37.8 90.17,38.72 93.69,42.3 C96.3,44.96 99.23,47.91 101.01,55.6 C102.79,63.29 103.26,67.68 103.64,68.43 C104.02,69.18 105.87,71.5 107.14,72.91 C108.84,74.79 110.52,75.73 110.96,75.66 C112.18,75.38 113.54,75.38 115.3,75.8 C117.06,76.22 119.43,78.84 120.72,80.23 C122.41,82.06 124.17,83.47 124.17,83.82 C124.17,84.54 118.76,85.03 113.4,82.98 C110.09,81.71 108.75,78.4 108.75,78.4 C108.75,78.4 106,76.5 104.32,75.02 C103.42,74.23 102.07,72.91 102.07,72.91 C102.07,72.91 101.4,75.74 100.66,78.19 C99.82,81.01 98.97,84.38 99.25,87.83 C99.53,91.28 101.08,95.43 102.63,98.67 C104.18,101.91 105.73,106.06 103.9,109.02 C102.07,111.98 95.81,116.77 92.5,114.37 C90.46,112.89 89.19,107.19 88.42,104.02 C87.65,100.85 84.9,94.1 84.55,93.32 C84.2,92.55 82.3,89.73 82.3,89.73 C82.3,89.73 76.53,90.08 70.83,90.01 C65.13,89.94 61.82,89.38 61.82,89.38 C61.82,89.38 57.53,97.33 55.91,101.91 C54.29,106.49 53.24,113.31 52.18,115.21 C51.12,117.11 49.29,120.4 42.33,119.71 C36.63,119.15 35.43,115.56 35.43,115.56 C35.43,115.56 34.66,112.04 36.77,105.28 C38.88,98.52 41.35,91.91 42.96,86.63 C43.52,84.79 44.16,81.7 44.16,81.7 C44.16,81.7 40.08,77.12 39.73,76.63 C39.38,76.14 38.11,74.94 38.11,74.94 L37.93,73.95 C37.93,73.95 41.51,74.12 45.71,72.82 C52.1,70.89 54.56,65.35 54.56,65.35 Z" fill="#BEBEBE"/>
  <path d="M47.8,20.02 C47.8,20.02 51.18,14.01 54.09,13.64 C57,13.27 66.46,12.24 71.36,14.02 C73.82,14.91 79.83,20.89 81.66,23.94 C83.43,26.89 85.72,30.81 85.06,35.79 C84.41,40.76 83,40.76 83,41.98 C83,43.2 83.47,46.11 81.59,48.27 C79.71,50.43 77.65,48.46 76.43,49.96 C75.21,51.46 75.58,55.22 73.9,57 C72.21,58.78 68.64,58.6 67.24,59.72 C65.83,60.85 65.46,64.69 61.89,65.45 C58.32,66.2 56.92,62.63 55.88,56.16 C54.85,49.68 54.33,39.04 52.69,39.08 C51.01,39.12 51.62,42.33 51.82,46.65 C52.03,51.2 53.63,60.67 50.53,64.71 C47.43,68.75 44.15,70.44 40.77,70.62 C37.39,70.81 34.18,68.44 32.68,68.72 C31.18,69 32.05,70.82 29.7,72.97 C27.26,75.2 25.38,77.38 24.63,79.26 C23.88,81.14 21.81,84.99 21.91,89.02 C22.01,93.05 23.27,94.72 24.87,94.35 C26.47,93.97 25.54,89.56 26.98,88.65 C28.32,87.81 31.95,89.78 31.86,95.22 C31.77,100.66 26.49,105.26 19.24,102.87 C11.57,100.34 10.58,89 12.27,83.09 C13.96,77.18 14.71,72.44 14.8,69.15 C14.89,65.87 13.46,63.96 13.74,61.62 C14.02,59.27 13.74,58.71 13.83,54.49 C13.92,50.27 13.45,44.26 14.3,42.76 C15.14,41.26 16.55,39.66 16.55,39.66 C16.55,39.66 15.64,32.97 17.58,29.34 C20.58,23.71 26.4,20.99 33.07,20.33 C39.73,19.65 47.8,20.02 47.8,20.02 Z" fill="#BEBEBE"/>
  <path d="M43.72,50.16 A3.34 3.41 0 1 1 37.04,50.16 A3.34 3.41 0 1 1 43.72,50.16 Z" fill="#010101"/>
  <path d="M34.38,66.72 C34.8,64.8 37.42,62.07 39.4,62.73 C40.67,63.15 41.51,66.2 41.09,68.17 C40.67,70.14 38.88,71.6 36.49,70.84 C34.1,70.09 34.12,67.93 34.38,66.72 Z" fill="#FAE9AE"/>
  <path d="M3.79,56.58 C3.02,58.29 5.34,60.66 6.89,61.93 C8.44,63.2 11.82,65.59 12.8,66.15 C13.78,66.71 14.77,66.95 14.77,66.95 C14.77,66.95 13.88,63.48 13.88,62.45 C13.88,61.42 13.93,59.31 13.93,59.31 C13.93,59.31 10.97,57.71 9.28,57.15 C7.59,56.58 4.44,55.12 3.79,56.58 Z" fill="#FAE9AE"/>
</svg>
